lib/brands/logos/avade-workplace-violence-prevention.svg

<svg xmlns="http://www.w3.org/2000/svg" fill="none" aria-hidden="true" viewBox="0 0 212 56"><g id="AVADE Workplace Violence Prevention"><g id="Group"><g id="Vector"><path fill="#191D1E" d="M111.887 34.908H95.9891L93.0349 42.2122H82.1857L98.782 4.6162H109.256L125.905 42.2122H114.841L111.887 34.908ZM108.772 27.0657L103.938 15.0349L99.1048 27.0657H108.772Z"/><path fill="#191D1E" d="M125.91 4.6162H143.687C156.149 4.6162 164.688 11.8667 164.688 23.4141C164.688 34.9615 156.149 42.212 143.687 42.212H125.91V4.6162ZM143.258 33.7263C149.65 33.7263 153.947 29.9125 153.947 23.4141C153.947 16.915 149.65 13.1019 143.258 13.1019H136.545V33.7261L143.258 33.7263Z"/><path fill="#191D1E" d="M197.322 33.9943V42.212H167.827V4.6162H197.314V12.8331H178.354V19.1708H195.058V27.1195H178.354V33.9943H197.322Z"/><path fill="#191D1E" d="M67.9958 48.8488L68.1038 49.589L68.2618 48.9221L69.3719 45.0055H69.9964L71.0795 48.9221L71.2337 49.6005L71.3532 48.8451L72.2244 45.0055H72.9686L71.6077 50.6184H70.933L69.7766 46.5283L69.6882 46.1006L69.5994 46.5283L68.4005 50.6184H67.7258L66.369 45.0055H67.1092L67.9958 48.8488Z"/><path fill="#191D1E" d="M77.6731 47.9932C77.6731 48.5431 77.5806 49.0231 77.3956 49.433C77.2107 49.843 76.9484 50.156 76.6092 50.3717C76.27 50.5874 75.8743 50.6954 75.4218 50.6954C74.9796 50.6954 74.5879 50.5867 74.246 50.3697C73.904 50.1527 73.6388 49.843 73.4498 49.4405C73.2611 49.0383 73.1638 48.5726 73.1588 48.0432V47.6382C73.1588 47.0985 73.2526 46.6218 73.44 46.2081C73.6275 45.7944 73.893 45.4777 74.2362 45.2579C74.5794 45.0382 74.9719 44.9282 75.4138 44.9282C75.8635 44.9282 76.26 45.037 76.603 45.2539C76.9462 45.4712 77.2102 45.7859 77.3951 46.1984C77.5801 46.6108 77.6726 47.0908 77.6726 47.6382V47.9932H77.6731ZM76.9367 47.6307C76.9367 46.965 76.803 46.4543 76.5357 46.0984C76.2683 45.7424 75.8945 45.5644 75.4138 45.5644C74.9459 45.5644 74.5779 45.7424 74.3095 46.0984C74.041 46.4543 73.9027 46.9483 73.895 47.5807V47.9932C73.895 48.6384 74.0305 49.1451 74.3017 49.5138C74.5727 49.8827 74.9461 50.067 75.4216 50.067C75.8995 50.067 76.2698 49.8927 76.5317 49.5445C76.7937 49.1963 76.9287 48.6971 76.9364 48.0469L76.9367 47.6307Z"/><path fill="#191D1E" d="M80.4076 48.3479H79.0892V50.6184H78.3453V45.0055H80.2034C80.8356 45.0055 81.322 45.1495 81.6625 45.4372C82.0029 45.7252 82.1732 46.1441 82.1732 46.6938C82.1732 47.0433 82.0787 47.348 81.8899 47.6075C81.701 47.8672 81.4382 48.0609 81.1015 48.1897L82.4199 50.5719V50.6182H81.6257L80.4076 48.3479ZM79.0892 47.7425H80.2264C80.5938 47.7425 80.8863 47.6472 81.1035 47.4567C81.3208 47.2662 81.4292 47.0113 81.4292 46.6921C81.4292 46.3443 81.3258 46.0781 81.119 45.8926C80.9123 45.7071 80.6133 45.6132 80.2229 45.6107H79.0895L79.0892 47.7425Z"/><path fill="#191D1E" d="M84.6759 48.0084L83.9897 48.7216V50.6182H83.2498V45.0055H83.9897V47.7812L86.484 45.0055H87.3784L85.1696 47.4842L87.5519 50.6184H86.6652L84.6759 48.0084Z"/><path fill="#191D1E" d="M88.979 48.4211V50.6184H88.2391V45.0055H90.3091C90.9233 45.0055 91.4045 45.1622 91.7527 45.4757C92.1009 45.7891 92.2752 46.2044 92.2752 46.7208C92.2752 47.2657 92.1049 47.6852 91.7645 47.9794C91.424 48.2739 90.9363 48.4209 90.3014 48.4209L88.979 48.4211ZM88.979 47.8157H90.3091C90.7048 47.8157 91.008 47.7225 91.2188 47.5357C91.4295 47.3492 91.535 47.0795 91.535 46.7268C91.535 46.3921 91.4295 46.1244 91.2188 45.9236C91.008 45.7229 90.7188 45.6187 90.3514 45.6109H88.979V47.8157Z"/><path fill="#191D1E" d="M94.003 50.013H96.663V50.6182H93.2591V45.0055H94.003V50.013Z"/><path fill="#191D1E" d="M100.875 49.1496H98.5233L97.9951 50.6182H97.2317L99.375 45.0052H100.023L102.17 50.6182H101.411L100.875 49.1496ZM98.7468 48.5444H100.655L99.6989 45.9191L98.7468 48.5444Z"/><path fill="#191D1E" d="M106.581 48.8373C106.511 49.431 106.292 49.8892 105.923 50.2117C105.554 50.5344 105.064 50.6957 104.453 50.6957C103.79 50.6957 103.258 50.4579 102.859 49.9825C102.459 49.507 102.259 48.8711 102.259 48.0742V47.5345C102.259 47.0128 102.353 46.5541 102.539 46.1581C102.725 45.7624 102.989 45.4584 103.331 45.2464C103.673 45.0345 104.069 44.9285 104.518 44.9285C105.115 44.9285 105.593 45.095 105.953 45.4277C106.312 45.7606 106.522 46.2214 106.581 46.8098H105.837C105.773 46.3613 105.633 46.0364 105.419 45.8354C105.204 45.6344 104.904 45.5337 104.518 45.5337C104.046 45.5337 103.675 45.7087 103.406 46.0584C103.138 46.4081 103.004 46.906 103.004 47.5515V48.0954C103.004 48.7049 103.131 49.1898 103.385 49.55C103.64 49.91 103.996 50.0902 104.453 50.0902C104.864 50.0902 105.18 49.997 105.399 49.8107C105.619 49.6245 105.765 49.3 105.837 48.8373H106.581Z"/><path fill="#191D1E" d="M110.803 48.0239H108.371V50.013H111.196V50.6182H107.63V45.0055H111.158V45.6107H108.371V47.4185H110.803V48.0239Z"/><path fill="#191D1E" d="M116.009 49.6353L117.613 45.0055H118.422L116.34 50.6184H115.685L113.607 45.0055H114.413L116.009 49.6353Z"/><path fill="#191D1E" d="M120.007 50.6184H119.267V45.0055H120.007V50.6184Z"/><path fill="#191D1E" d="M125.402 47.9932C125.402 48.5431 125.309 49.0231 125.124 49.433C124.939 49.843 124.677 50.156 124.338 50.3717C123.999 50.5874 123.603 50.6954 123.15 50.6954C122.708 50.6954 122.316 50.5867 121.975 50.3697C121.633 50.1525 121.367 49.843 121.179 49.4405C120.99 49.0383 120.892 48.5726 120.887 48.0432V47.6382C120.887 47.0985 120.981 46.6218 121.169 46.2081C121.357 45.7944 121.622 45.4777 121.965 45.2579C122.308 45.0382 122.701 44.9282 123.143 44.9282C123.593 44.9282 123.989 45.037 124.332 45.2539C124.675 45.4712 124.939 45.7859 125.124 46.1984C125.309 46.6108 125.402 47.0908 125.402 47.6382V47.9932ZM124.665 47.6307C124.665 46.965 124.532 46.4543 124.265 46.0984C123.997 45.7424 123.623 45.5644 123.143 45.5644C122.675 45.5644 122.307 45.7424 122.038 46.0984C121.77 46.4543 121.632 46.9483 121.624 47.5807V47.9932C121.624 48.6384 121.76 49.1451 122.031 49.5138C122.302 49.8827 122.675 50.067 123.15 50.067C123.628 50.067 123.999 49.8927 124.261 49.5445C124.523 49.1963 124.658 48.6971 124.665 48.0469V47.6307H124.665Z"/><path fill="#191D1E" d="M127.138 50.013H129.798V50.6182H126.394V45.0055H127.138V50.013H127.138Z"/><path fill="#191D1E" d="M133.854 48.0239H131.421V50.013H134.247V50.6182H130.681V45.0055H134.208V45.6107H131.421V47.4185H133.854V48.0239Z"/><path fill="#191D1E" d="M139.521 50.6184H138.777L135.952 46.2931V50.6184H135.207V45.0055H135.952L138.785 49.35V45.0055H139.521V50.6184H139.521Z"/><path fill="#191D1E" d="M144.688 48.8373C144.619 49.431 144.4 49.8892 144.031 50.2117C143.662 50.5344 143.172 50.6957 142.56 50.6957C141.897 50.6957 141.366 50.4579 140.966 49.9825C140.567 49.507 140.367 48.8711 140.367 48.0742V47.5345C140.367 47.0128 140.46 46.5541 140.646 46.1581C140.833 45.7624 141.097 45.4584 141.439 45.2464C141.78 45.0345 142.176 44.9285 142.626 44.9285C143.222 44.9285 143.7 45.095 144.06 45.4277C144.42 45.7606 144.629 46.2214 144.688 46.8098H143.944C143.88 46.3613 143.741 46.0364 143.526 45.8354C143.311 45.6344 143.011 45.5337 142.626 45.5337C142.153 45.5337 141.782 45.7087 141.514 46.0584C141.245 46.4081 141.111 46.906 141.111 47.5515V48.0954C141.111 48.7049 141.238 49.1898 141.492 49.55C141.747 49.91 142.103 50.0902 142.56 50.0902C142.971 50.0902 143.287 49.997 143.506 49.8107C143.726 49.6245 143.872 49.3 143.944 48.8373H144.688Z"/><path fill="#191D1E" d="M148.752 48.0239H146.32V50.013H149.146V50.6182H145.58V45.0055H149.107V45.6107H146.32V47.4185H148.752V48.0239Z"/><path fill="#191D1E" d="M152.84 48.4211V50.6184H152.1V45.0055H154.17C154.785 45.0055 155.266 45.1622 155.614 45.4757C155.962 45.7891 156.136 46.2044 156.136 46.7208C156.136 47.2657 155.966 47.6852 155.625 47.9794C155.285 48.2739 154.797 48.4209 154.162 48.4209L152.84 48.4211ZM152.84 47.8157H154.17C154.566 47.8157 154.869 47.7225 155.08 47.5357C155.291 47.3492 155.396 47.0795 155.396 46.7268C155.396 46.3921 155.291 46.1244 155.08 45.9236C154.869 45.7229 154.58 45.6187 154.213 45.6109H152.84V47.8157Z"/><path fill="#191D1E" d="M159.021 48.3479H157.703V50.6184H156.959V45.0055H158.817C159.449 45.0055 159.935 45.1495 160.276 45.4372C160.616 45.7252 160.787 46.1441 160.787 46.6938C160.787 47.0433 160.692 47.348 160.503 47.6075C160.314 47.8669 160.051 48.0609 159.715 48.1897L161.033 50.5719V50.6182H160.239L159.021 48.3479ZM157.703 47.7425H158.84C159.208 47.7425 159.5 47.6472 159.717 47.4567C159.934 47.2662 160.043 47.0113 160.043 46.6921C160.043 46.3443 159.939 46.0781 159.733 45.8926C159.526 45.7071 159.227 45.6132 158.836 45.6107H157.703L157.703 47.7425Z"/><path fill="#191D1E" d="M165.036 48.0239H162.603V50.013H165.429V50.6182H161.863V45.0055H165.39V45.6107H162.603V47.4185H165.036V48.0239Z"/><path fill="#191D1E" d="M168.248 49.6353L169.852 45.0055H170.661L168.579 50.6184H167.924L165.846 45.0055H166.652L168.248 49.6353Z"/><path fill="#191D1E" d="M174.625 48.0239H172.192V50.013H175.018V50.6182H171.452V45.0055H174.979V45.6107H172.192V47.4185H174.625V48.0239Z"/><path fill="#191D1E" d="M180.292 50.6184H179.548L176.723 46.2931V50.6184H175.978V45.0055H176.723L179.556 49.35V45.0055H180.292L180.292 50.6184Z"/><path fill="#191D1E" d="M185.413 45.6109H183.609V50.6184H182.872V45.6109H181.072V45.0057H185.413V45.6109Z"/><path fill="#191D1E" d="M187.079 50.6184H186.339V45.0055H187.079V50.6184Z"/><path fill="#191D1E" d="M192.316 47.9932C192.316 48.5431 192.223 49.0231 192.038 49.433C191.853 49.843 191.591 50.156 191.252 50.3717C190.912 50.5874 190.517 50.6954 190.064 50.6954C189.622 50.6954 189.23 50.5867 188.889 50.3697C188.547 50.1525 188.281 49.843 188.092 49.4405C187.903 49.0383 187.806 48.5726 187.801 48.0432V47.6382C187.801 47.0985 187.895 46.6218 188.083 46.2081C188.27 45.7944 188.536 45.4777 188.879 45.2579C189.222 45.0382 189.615 44.9282 190.057 44.9282C190.506 44.9282 190.903 45.037 191.246 45.2539C191.589 45.4712 191.853 45.7859 192.038 46.1984C192.223 46.6108 192.316 47.0908 192.316 47.6382V47.9932ZM191.579 47.6307C191.579 46.965 191.446 46.4543 191.178 46.0984C190.911 45.7424 190.537 45.5644 190.057 45.5644C189.589 45.5644 189.221 45.7424 188.952 46.0984C188.684 46.4543 188.545 46.9483 188.538 47.5807V47.9932C188.538 48.6384 188.673 49.1451 188.945 49.5138C189.216 49.8827 189.589 50.067 190.064 50.067C190.542 50.067 190.912 49.8927 191.174 49.5445C191.436 49.1963 191.572 48.6971 191.579 48.0469V47.6307H191.579Z"/><path fill="#191D1E" d="M197.305 50.6184H196.561L193.735 46.2931V50.6184H192.991V45.0055H193.736L196.569 49.35V45.0055H197.305V50.6184Z"/><path fill="#191D1E" d="M201.176 4.6087C201.54 4.6087 201.889 4.69969 202.223 4.88143C202.557 5.06341 202.82 5.32413 203.011 5.66385C203.202 6.00357 203.297 6.35903 203.297 6.73024C203.297 7.09946 203.204 7.45167 203.016 7.78664C202.829 8.12161 202.568 8.38308 202.233 8.57031C201.898 8.75754 201.546 8.85129 201.176 8.85129C200.807 8.85129 200.455 8.75754 200.12 8.57031C199.785 8.38308 199.524 8.12161 199.336 7.78664C199.149 7.45167 199.055 7.09946 199.055 6.73024C199.055 6.35903 199.15 6.00357 199.342 5.66385C199.533 5.32438 199.795 5.06341 200.13 4.88143C200.463 4.69969 200.812 4.6087 201.176 4.6087ZM201.179 5.02416C200.887 5.02416 200.607 5.09716 200.34 5.24289C200.072 5.38888 199.861 5.59836 199.707 5.87158C199.553 6.1448 199.476 6.43102 199.476 6.72999C199.476 7.02697 199.551 7.31069 199.702 7.58016C199.852 7.84963 200.062 8.06036 200.332 8.2116C200.601 8.36308 200.884 8.43858 201.179 8.43858C201.476 8.43858 201.759 8.36283 202.028 8.2116C202.297 8.06011 202.507 7.84963 202.658 7.58016C202.81 7.31069 202.885 7.02722 202.885 6.72999C202.885 6.43077 202.808 6.14455 202.654 5.87158C202.5 5.59811 202.288 5.38888 202.02 5.24289C201.751 5.09716 201.47 5.02416 201.179 5.02416ZM200.218 5.6141H200.675C201.103 5.6141 201.343 5.61585 201.395 5.6196C201.546 5.6326 201.664 5.6626 201.748 5.70984C201.832 5.75684 201.902 5.82883 201.958 5.92582C202.015 6.02281 202.043 6.1303 202.043 6.24854C202.043 6.41103 201.99 6.55001 201.884 6.66525C201.778 6.78049 201.629 6.85198 201.437 6.87998C201.505 6.90573 201.557 6.93397 201.594 6.96422C201.631 6.99472 201.682 7.05246 201.747 7.13745C201.763 7.1597 201.819 7.25094 201.913 7.41143L202.179 7.86563H201.614L201.425 7.50017C201.298 7.25469 201.193 7.09996 201.11 7.03646C201.027 6.97272 200.921 6.94097 200.794 6.94097H200.675V7.86588H200.218V5.6141ZM200.675 6.58601H200.86C201.124 6.58601 201.288 6.57576 201.352 6.55551C201.416 6.53551 201.466 6.49977 201.503 6.44877C201.54 6.39828 201.558 6.34028 201.558 6.27579C201.558 6.2133 201.541 6.1573 201.505 6.10831C201.468 6.05931 201.417 6.02431 201.351 6.00307C201.284 5.98182 201.121 5.97132 200.861 5.97132H200.675L200.675 6.58601Z"/><path fill="#191D1E" d="M24.2696 30.7206C27.5298 29.4175 30.9207 28.1731 34.4306 26.9912L39.2342 15.0349L42.966 24.3225C45.9602 23.4561 49.0412 22.6422 52.1956 21.8768L44.5516 4.61595H34.0782L22.1786 31.572C22.8703 31.2856 23.5667 31.0016 24.2696 30.7206Z"/><path fill="#191D1E" d="M88.0588 16.0321L92.9516 4.61595H82.4244L77.0499 17.2487C80.6376 16.7723 84.3112 16.3683 88.0588 16.0321Z"/><path fill="#191D1E" d="M67.6581 18.6753L61.7999 4.61595H50.3061L57.1871 20.7251C60.5923 19.9799 64.0775 19.291 67.6581 18.6753Z"/><path fill="#191D1E" d="M45.8718 31.6133L47.1829 34.9077L50.1371 42.212H61.2015L54.6586 27.4425C51.5842 28.7896 48.6475 30.1837 45.8718 31.6133Z"/><path fill="#191D1E" d="M85.7078 16.9537C85.6271 16.974 85.5458 16.9952 85.4651 17.0155C84.6984 17.2082 83.929 17.4074 83.1578 17.6109C82.9458 17.6669 82.7341 17.7227 82.5219 17.7794C81.669 18.0074 80.8146 18.2396 79.9569 18.4806C79.9471 18.4833 79.9374 18.4861 79.9276 18.4888C78.6178 18.857 77.3222 19.2373 76.0373 19.6257L72.0044 29.1073L68.9992 21.894C68.8867 21.9325 68.7735 21.9707 68.661 22.0092C68.3865 22.1037 68.1131 22.1987 67.8401 22.294C67.5246 22.4042 67.2101 22.5149 66.8967 22.6264C66.6425 22.7167 66.388 22.8069 66.1348 22.8979C65.7625 23.0316 65.3926 23.1669 65.0234 23.3021C64.8329 23.3719 64.6414 23.4408 64.4519 23.5111C62.6793 24.1673 60.9408 24.8405 59.2394 25.5289L66.3652 42.212H76.8387L87.8904 16.4233C87.1644 16.5965 86.438 16.771 85.7078 16.9537Z"/></g><path id="Vector_2" fill="url(#paint0_linear_93_14342)" d="M79.9556 18.4861C83.7742 17.4129 87.5499 16.47 91.2595 15.6514C65.1481 18.9115 43.0472 25.4527 24.9955 33.6868C23.6902 34.2823 22.406 34.8865 21.1432 35.4989C17.3543 37.3362 13.7559 39.2478 10.3482 41.2173C9.78927 41.5403 9.25158 41.8695 8.70288 42.1955H29.0849C40.334 33.2809 58.5347 24.5057 79.9556 18.4861Z"/></g></g><defs><linearGradient id="paint0_linear_93_14342" x1="13.8464" x2="91.1706" y1="42.6732" y2="13.571" gradientUnits="userSpaceOnUse"><stop stop-color="#C62433"/><stop offset="1" stop-color="#B21F2D"/></linearGradient></defs></svg>

<svg xmlns="http://www.w3.org/2000/svg" fill="none" aria-hidden="true" viewBox="0 0 212 56"><path fill="#191D1E" d="M111.887 34.908H95.989l-2.954 7.304h-10.85L98.783 4.616h10.474l16.649 37.596h-11.064l-2.954-7.304Zm-3.115-7.842-4.834-12.031-4.833 12.03h9.667Zm17.138-22.45h17.777c12.462 0 21.001 7.25 21.001 18.798 0 11.547-8.539 18.798-21.001 18.798H125.91V4.616Zm17.348 29.11c6.392 0 10.689-3.813 10.689-10.312 0-6.499-4.297-10.312-10.689-10.312h-6.713v20.624h6.713Zm54.064.268v8.218h-29.495V4.616h29.487v8.217h-18.96v6.338h16.704v7.948h-16.704v6.875h18.968ZM67.996 48.849l.108.74.158-.667 1.11-3.916h.624l1.084 3.916.154.678.12-.755.87-3.84h.745l-1.361 5.613h-.675l-1.156-4.09-.089-.427-.089.427-1.199 4.09h-.674l-1.357-5.613h.74l.887 3.844Zm9.677-.856c0 .55-.092 1.03-.277 1.44a2.1 2.1 0 0 1-.787.939 2.17 2.17 0 0 1-1.187.323c-.442 0-.834-.108-1.176-.325a2.15 2.15 0 0 1-.796-.93c-.189-.402-.286-.867-.291-1.397v-.405c0-.54.094-1.016.281-1.43.188-.414.453-.73.796-.95.343-.22.736-.33 1.178-.33.45 0 .846.109 1.189.326.343.217.607.532.792.944.185.413.278.893.278 1.44v.355Zm-.736-.362c0-.666-.134-1.177-.401-1.533-.268-.356-.642-.534-1.122-.534-.468 0-.836.178-1.105.534-.268.356-.406.85-.414 1.483v.412c0 .645.136 1.152.407 1.52.27.37.644.554 1.12.554.478 0 .848-.174 1.11-.523.262-.348.397-.847.404-1.497v-.416Zm3.471.717h-1.319v2.27h-.744v-5.613h1.858c.633 0 1.119.145 1.46.432.34.288.51.707.51 1.257 0 .35-.094.654-.283.913-.189.26-.452.454-.788.583l1.318 2.382v.046h-.794l-1.218-2.27Zm-1.319-.605h1.137c.368 0 .66-.096.877-.286.218-.19.326-.446.326-.765 0-.348-.103-.614-.31-.8-.207-.185-.506-.279-.896-.281H79.09v2.132Zm5.587.265-.686.714v1.896h-.74v-5.613h.74v2.776l2.494-2.776h.894l-2.208 2.48 2.382 3.133h-.887l-1.99-2.61Zm4.303.413v2.197h-.74v-5.613h2.07c.614 0 1.096.157 1.444.47.348.314.522.73.522 1.246 0 .545-.17.964-.51 1.258-.341.295-.829.442-1.464.442H88.98Zm0-.605h1.33c.396 0 .699-.094.91-.28.21-.187.316-.456.316-.81 0-.334-.105-.602-.316-.802-.211-.201-.5-.305-.868-.313H88.98v2.205Zm5.024 2.197h2.66v.605h-3.404v-5.613h.744v5.008Zm6.872-.863h-2.352l-.528 1.468h-.763l2.143-5.613h.648l2.147 5.613h-.759l-.536-1.468Zm-2.128-.606h1.908l-.956-2.625-.952 2.625Zm7.834.293c-.07.594-.289 1.052-.658 1.375-.369.322-.859.484-1.47.484-.663 0-1.195-.238-1.594-.713-.4-.476-.6-1.112-.6-1.909v-.54c0-.521.094-.98.28-1.376.186-.396.45-.7.792-.912a2.208 2.208 0 0 1 1.187-.318c.597 0 1.075.167 1.435.5.359.333.569.793.628 1.382h-.744c-.064-.449-.204-.774-.418-.975-.215-.2-.515-.301-.901-.301-.472 0-.843.175-1.112.524-.268.35-.402.848-.402 1.493v.544c0 .61.127 1.095.381 1.455.255.36.611.54 1.068.54.411 0 .727-.093.946-.28.22-.186.366-.51.438-.973h.744Zm4.222-.813h-2.432v1.989h2.825v.605h-3.566v-5.613h3.528v.606h-2.787v1.808h2.432v.605Zm5.206 1.611 1.604-4.63h.809l-2.082 5.613h-.655l-2.078-5.613h.806l1.596 4.63Zm3.998.983h-.74v-5.613h.74v5.613Zm5.395-2.625c0 .55-.093 1.03-.278 1.44-.185.41-.447.723-.786.939a2.165 2.165 0 0 1-1.188.323c-.442 0-.834-.108-1.175-.325a2.144 2.144 0 0 1-.796-.93c-.189-.402-.287-.867-.292-1.397v-.405c0-.54.094-1.016.282-1.43.188-.414.453-.73.796-.95.343-.22.736-.33 1.178-.33.45 0 .846.109 1.189.326a2.1 2.1 0 0 1 .792.944c.185.413.278.893.278 1.44v.355Zm-.737-.362c0-.666-.133-1.177-.4-1.533-.268-.356-.642-.534-1.122-.534-.468 0-.836.178-1.105.534-.268.356-.406.85-.414 1.483v.412c0 .645.136 1.152.407 1.52.271.37.644.554 1.119.554.478 0 .849-.174 1.111-.523.262-.348.397-.847.404-1.497v-.416Zm2.473 2.382h2.66v.605h-3.404v-5.613h.744v5.008Zm6.716-1.989h-2.433v1.989h2.826v.605h-3.566v-5.613h3.527v.606h-2.787v1.808h2.433v.605Zm5.667 2.594h-.744l-2.825-4.325v4.325h-.745v-5.613h.745l2.833 4.345v-4.345h.736v5.613Zm5.167-1.781c-.069.594-.288 1.052-.657 1.375-.369.322-.859.484-1.471.484-.663 0-1.194-.238-1.594-.713-.399-.476-.599-1.112-.599-1.909v-.54c0-.521.093-.98.279-1.376.187-.396.451-.7.793-.912a2.203 2.203 0 0 1 1.187-.318c.596 0 1.074.167 1.434.5.36.333.569.793.628 1.382h-.744c-.064-.449-.203-.774-.418-.975-.215-.2-.515-.301-.9-.301-.473 0-.844.175-1.112.524-.269.35-.403.848-.403 1.493v.544c0 .61.127 1.095.381 1.455.255.36.611.54 1.068.54.411 0 .727-.093.946-.28.22-.186.366-.51.438-.973h.744Zm4.064-.813h-2.432v1.989h2.826v.605h-3.566v-5.613h3.527v.606h-2.787v1.808h2.432v.605Zm4.088.397v2.197h-.74v-5.613h2.07c.615 0 1.096.157 1.444.47.348.314.522.73.522 1.246 0 .545-.17.964-.511 1.258-.34.295-.828.442-1.463.442h-1.322Zm0-.605h1.33c.396 0 .699-.094.91-.28.211-.187.316-.456.316-.81 0-.334-.105-.602-.316-.802-.211-.201-.5-.305-.867-.313h-1.373v2.205Zm6.181.532h-1.318v2.27h-.744v-5.613h1.858c.632 0 1.118.145 1.459.432.34.288.511.707.511 1.257 0 .35-.095.654-.284.913-.189.26-.452.454-.788.583l1.318 2.382v.046h-.794l-1.218-2.27Zm-1.318-.605h1.137c.368 0 .66-.096.877-.286.217-.19.326-.446.326-.765 0-.348-.104-.614-.31-.8-.207-.185-.506-.279-.897-.281h-1.133v2.132Zm7.333.281h-2.433v1.989h2.826v.605h-3.566v-5.613h3.527v.606h-2.787v1.808h2.433v.605Zm3.212 1.611 1.604-4.63h.809l-2.082 5.613h-.655l-2.078-5.613h.806l1.596 4.63Zm6.377-1.611h-2.433v1.989h2.826v.605h-3.566v-5.613h3.527v.606h-2.787v1.808h2.433v.605Zm5.667 2.594h-.744l-2.825-4.325v4.325h-.745v-5.613h.745l2.833 4.345v-4.345h.736v5.613Zm5.121-5.008h-1.804v5.008h-.737v-5.007h-1.8v-.605h4.341v.605Zm1.666 5.008h-.74v-5.613h.74v5.613Zm5.237-2.625c0 .55-.093 1.03-.278 1.44-.185.41-.447.723-.786.939-.34.215-.735.323-1.188.323-.442 0-.834-.108-1.175-.325a2.153 2.153 0 0 1-.797-.93c-.189-.402-.286-.867-.291-1.397v-.405c0-.54.094-1.016.282-1.43.187-.414.453-.73.796-.95.343-.22.736-.33 1.178-.33.449 0 .846.109 1.189.326a2.1 2.1 0 0 1 .792.944c.185.413.278.893.278 1.44v.355Zm-.737-.362c0-.666-.133-1.177-.401-1.533-.267-.356-.641-.534-1.121-.534-.468 0-.836.178-1.105.534-.268.356-.407.85-.414 1.483v.412c0 .645.135 1.152.407 1.52.271.37.644.554 1.119.554.478 0 .848-.174 1.11-.523.262-.348.398-.847.405-1.497v-.416Zm5.726 2.987h-.744l-2.826-4.325v4.325h-.744v-5.613h.745l2.833 4.345v-4.345h.736v5.613Zm3.871-46.009c.364 0 .713.09 1.047.272.334.182.597.443.788.783a2.127 2.127 0 0 1 .005 2.123 1.995 1.995 0 0 1-.783.783 2.135 2.135 0 0 1-2.113 0 2.004 2.004 0 0 1-.784-.783 2.137 2.137 0 0 1-.281-1.057c0-.371.095-.726.287-1.066.191-.34.453-.6.788-.783a2.155 2.155 0 0 1 1.046-.272Zm.003.415c-.292 0-.572.073-.839.219a1.587 1.587 0 0 0-.633.629 1.714 1.714 0 0 0-.005 1.709c.15.269.36.48.63.63a1.703 1.703 0 0 0 2.553-1.481c0-.3-.077-.585-.231-.858a1.588 1.588 0 0 0-.634-.63 1.744 1.744 0 0 0-.841-.218Zm-.961.59h.457c.428 0 .668.002.72.006a.887.887 0 0 1 .353.09.625.625 0 0 1 .295.539.594.594 0 0 1-.159.416.727.727 0 0 1-.447.215c.068.026.12.054.157.084.037.03.088.088.153.173.016.023.072.114.166.274l.266.455h-.565l-.189-.366c-.127-.245-.232-.4-.315-.464a.505.505 0 0 0-.316-.095h-.119v.925h-.457V5.614Zm.457.972h.185c.264 0 .428-.01.492-.03a.286.286 0 0 0 .206-.28.275.275 0 0 0-.207-.273c-.067-.021-.23-.032-.49-.032h-.186v.615ZM24.27 30.72a195.442 195.442 0 0 1 10.16-3.729l4.804-11.956 3.732 9.288c2.994-.867 6.075-1.68 9.23-2.446L44.552 4.616H34.078l-11.9 26.956c.692-.286 1.389-.57 2.092-.851Zm63.789-14.688 4.893-11.416H82.424L77.05 17.249c3.588-.477 7.261-.88 11.009-1.217Zm-20.401 2.643L61.8 4.615H50.306l6.881 16.11c3.405-.745 6.89-1.434 10.471-2.05ZM45.872 31.613l1.31 3.295 2.955 7.304h11.065l-6.543-14.77a155.624 155.624 0 0 0-8.787 4.171Zm39.836-14.659-.243.061c-.767.193-1.536.392-2.307.596l-.636.168c-.853.228-1.707.46-2.565.702l-.03.008c-1.31.368-2.605.748-3.89 1.137l-4.033 9.481L69 21.894l-.338.115a201.74 201.74 0 0 0-1.764.617 188.805 188.805 0 0 0-1.873.676c-.191.07-.383.139-.572.21a181.663 181.663 0 0 0-5.213 2.017l7.126 16.683H76.84l11.05-25.789a204.1 204.1 0 0 0-2.182.53Z"/><path fill="url(#a)" d="M79.956 18.486a205.385 205.385 0 0 1 11.303-2.835c-26.11 3.26-48.212 9.802-66.264 18.036-1.305.595-2.589 1.2-3.852 1.812a168.48 168.48 0 0 0-10.795 5.718c-.559.323-1.096.653-1.645.979h20.382c11.249-8.915 29.45-17.69 50.87-23.71Z"/><defs><linearGradient id="a" x1="13.846" x2="91.171" y1="42.673" y2="13.571" gradientUnits="userSpaceOnUse"><stop stop-color="#C62433"/><stop offset="1" stop-color="#B21F2D"/></linearGradient></defs></svg>
